icon-themes/sifr_svg/cmd/lc_tablemodevariable.svg

<svg viewBox="0 0 24 24" xmlns="http://www.w3.org/2000/svg"><path d="m2 2v10h20v-10zm2 2h5v3h-5zm6 0h4v3h-4zm5 0h5v3h-5zm-11 4h5v3h-5zm6 0h4v3h-4zm5 0h5v3h-5zm-13 5v4.5625.875 4.5625h2v-2.5625l2.28125 2.28125c.18818.18125.3738705.28125.71875.28125h1v-1c.00004-.26531-.1-.529789-.28125-.699219l-2.28125-2.300781h3.5625v-2h-3.5625l2.2617188-2.300781c.2069-.16942.3007812-.300912.3007812-.699219v-1h-1c-.26531.00003-.5297988.1-.6992188.28125l-2.3007812 2.300781v-2.582031zm13 0v1c0 .398307.09388.529799.300781.699219l2.261719 2.300781h-3.5625v2h3.5625l-2.28125 2.300781c-.18125.16943-.28129.433909-.28125.699219v1h1c.421151 0 .53057-.1.71875-.28125l3.28125-3.28125v3.5625h2v-10h-2v3.582031l-3.300781-3.300781c-.16942-.18125-.433909-.28122-.699219-.28125z" fill="#555753"/></svg>

<svg viewBox="0 0 24 24" xmlns="http://www.w3.org/2000/svg">
  <path
     style="fill:#555753"
     d="M 2 2 L 2 12 L 22 12 L 22 2 L 2 2 z M 4 4 L 9 4 L 9 7 L 4 7 L 4 4 z M 10 4 L 14 4 L 14 7 L 10 7 L 10 4 z M 15 4 L 20 4 L 20 7 L 15 7 L 15 4 z M 4 8 L 9 8 L 9 11 L 4 11 L 4 8 z M 10 8 L 14 8 L 14 11 L 10 11 L 10 8 z M 15 8 L 20 8 L 20 11 L 15 11 L 15 8 z M 2 13 L 2 17.5625 L 2 18.4375 L 2 23 L 4 23 L 4 20.4375 L 6.28125 22.71875 C 6.46943 22.9 6.6551205 23 7 23 L 8 23 L 8 22 C 8.00004 21.73469 7.9 21.470211 7.71875 21.300781 L 5.4375 19 L 9 19 L 9 17 L 5.4375 17 L 7.6992188 14.699219 C 7.9061188 14.529799 8 14.398307 8 14 L 8 13 L 7 13 C 6.73469 13.00003 6.4702012 13.1 6.3007812 13.28125 L 4 15.582031 L 4 13 L 2 13 z M 15 13 L 15 14 C 15 14.398307 15.09388 14.529799 15.300781 14.699219 L 17.5625 17 L 14 17 L 14 19 L 17.5625 19 L 15.28125 21.300781 C 15.1 21.470211 14.99996 21.73469 15 22 L 15 23 L 16 23 C 16.421151 23 16.53057 22.9 16.71875 22.71875 L 20 19.4375 L 20 23 L 22 23 L 22 13 L 20 13 L 20 16.582031 L 16.699219 13.28125 C 16.529799 13.1 16.26531 13.00003 16 13 L 15 13 z "
     />
</svg>
